X: 1
T:Oakeys Keeker
M:3/4
L:1/4
C:Tommy Armstrong
K:C
C|CEG|GFD|DCC|C2 C/2C/2|CEG
!|ccc!|BGG|G2 G/2G/2|
ccc|cGE|FGA|G2 C/2D/2|EEF|GFD
!|DCC|C2 G|ccc|
GA_B|AFF|F2 A/2A/2
GEE|EFG|FDD|D2 G|ccc|cGE|FGA
!|G3|EEF|GFD|DCC|C2||
